assets/img/treegrid.svg

<svg height="84" viewBox="0 0 84 84" width="84" xmlns="http://www.w3.org/2000/svg" xmlns:xlink="http://www.w3.org/1999/xlink"><filter id="a" filterUnits="userSpaceOnUse" height="87" width="87" x="-1.5" y="-1.5"><feOffset/><feGaussianBlur result="blur" stdDeviation="2.5"/><feFlood flood-color="#aac7e5"/><feComposite in2="blur" operator="in"/><feComposite in="SourceGraphic"/></filter><clipPath id="b"><path d="m0 0h84v84h-84z"/></clipPath><g clip-path="url(#b)"><path d="m0 0h84v84h-84z" fill="#fff"/><path d="m3 14.333h78a3 3 0 0 1 3 3v78a3 3 0 0 1 -3 3h-78a3 3 0 0 1 -3-3v-78a3 3 0 0 1 3-3z" fill="#d0e0f0" transform="translate(0 -14.333)"/><g filter="url(#a)"><rect fill="#fff" height="72" rx="3" transform="translate(6 6)" width="72"/></g><g fill="#6a6a6a"><path d="m0 0h37v2h-37z" transform="translate(34 22)"/><path d="m0 0h23v2h-23z" transform="translate(48 41)"/><path d="m0 0h23v2h-23z" transform="translate(48 63)"/></g><path d="m14.914 10.44-1.886 3.233a1.667 1.667 0 0 1 -1.44.827h-10.415a.625.625 0 0 1 -.54-.94l1.886-3.233a1.667 1.667 0 0 1 1.439-.827h10.416a.625.625 0 0 1 .54.94zm-10.956-1.773h8.542v-1.25a1.25 1.25 0 0 0 -1.25-1.25h-4.167l-1.666-1.667h-4.167a1.25 1.25 0 0 0 -1.25 1.25v7.241l1.8-3.084a2.508 2.508 0 0 1 2.158-1.24z" fill="#185a69" transform="translate(13 11.5)"/><path d="m5.833 3.542v-3.542h-5.208a.624.624 0 0 0 -.625.625v12.083a.624.624 0 0 0 .625.625h8.75a.624.624 0 0 0 .625-.625v-8.541h-3.542a.627.627 0 0 1 -.625-.625zm4.167-.368v.159h-3.333v-3.333h.159a.625.625 0 0 1 .443.182l2.549 2.552a.623.623 0 0 1 .182.44z" fill="#185a69" transform="translate(29 35)"/><path d="m5.833 3.542v-3.542h-5.208a.624.624 0 0 0 -.625.625v12.083a.624.624 0 0 0 .625.625h8.75a.624.624 0 0 0 .625-.625v-8.541h-3.542a.627.627 0 0 1 -.625-.625zm4.167-.368v.159h-3.333v-3.333h.159a.625.625 0 0 1 .443.182l2.549 2.552a.623.623 0 0 1 .182.44z" fill="#185a69" transform="translate(29 57)"/></g></svg>

<svg xmlns="http://www.w3.org/2000/svg" xmlns:xlink="http://www.w3.org/1999/xlink" width="84" height="84" viewBox="0 0 84 84">
  <defs>
    <filter id="Rectangle_625" x="-1.5" y="-1.5" width="87" height="87" filterUnits="userSpaceOnUse">
      <feOffset input="SourceAlpha"/>
      <feGaussianBlur stdDeviation="2.5" result="blur"/>
      <feFlood flood-color="#aac7e5"/>
      <feComposite operator="in" in2="blur"/>
      <feComposite in="SourceGraphic"/>
    </filter>
    <clipPath id="clip-treegrid">
      <rect width="84" height="84"/>
    </clipPath>
  </defs>
  <g id="treegrid" clip-path="url(#clip-treegrid)">
    <rect width="84" height="84" fill="#fff"/>
    <g id="Group_298" data-name="Group 298" transform="translate(-669 -682)">
      <path id="Union_36" data-name="Union 36" d="M3,14.333H81a3,3,0,0,1,3,3v78a3,3,0,0,1-3,3H3a3,3,0,0,1-3-3v-78A3,3,0,0,1,3,14.333Z" transform="translate(669 667.667)" fill="#d0e0f0"/>
      <g transform="matrix(1, 0, 0, 1, 669, 682)" filter="url(#Rectangle_625)">
        <rect id="Rectangle_625-2" data-name="Rectangle 625" width="72" height="72" rx="3" transform="translate(6 6)" fill="#fff"/>
      </g>
      <rect id="Rectangle_192" data-name="Rectangle 192" width="37" height="2" transform="translate(703 704)" fill="#6a6a6a"/>
      <rect id="Rectangle_193" data-name="Rectangle 193" width="23" height="2" transform="translate(717 723)" fill="#6a6a6a"/>
      <rect id="Rectangle_194" data-name="Rectangle 194" width="23" height="2" transform="translate(717 745)" fill="#6a6a6a"/>
      <path id="Icon_awesome-folder-open" data-name="Icon awesome-folder-open" d="M14.914,10.44l-1.886,3.233a1.667,1.667,0,0,1-1.44.827H1.173a.625.625,0,0,1-.54-.94l1.886-3.233A1.667,1.667,0,0,1,3.958,9.5H14.374a.625.625,0,0,1,.54.94ZM3.958,8.667H12.5V7.417a1.25,1.25,0,0,0-1.25-1.25H7.083L5.417,4.5H1.25A1.25,1.25,0,0,0,0,5.75v7.241L1.8,9.907A2.508,2.508,0,0,1,3.958,8.667Z" transform="translate(682 693.5)" fill="#185a69"/>
      <path id="Icon_awesome-file" data-name="Icon awesome-file" d="M5.833,3.542V0H.625A.624.624,0,0,0,0,.625V12.708a.624.624,0,0,0,.625.625h8.75A.624.624,0,0,0,10,12.708V4.167H6.458A.627.627,0,0,1,5.833,3.542ZM10,3.174v.159H6.667V0h.159a.625.625,0,0,1,.443.182L9.818,2.734A.623.623,0,0,1,10,3.174Z" transform="translate(698 717)" fill="#185a69"/>
      <path id="Icon_awesome-file-2" data-name="Icon awesome-file" d="M5.833,3.542V0H.625A.624.624,0,0,0,0,.625V12.708a.624.624,0,0,0,.625.625h8.75A.624.624,0,0,0,10,12.708V4.167H6.458A.627.627,0,0,1,5.833,3.542ZM10,3.174v.159H6.667V0h.159a.625.625,0,0,1,.443.182L9.818,2.734A.623.623,0,0,1,10,3.174Z" transform="translate(698 739)" fill="#185a69"/>
    </g>
  </g>
</svg>
